X:1
T:New Calabar, 77.77
T:John Downing Farrer (1829-1919)
T:New Calabar, 77.77
T:Public Domain
C:John Downing Farrer (1829-1919)
Z:Public Domain
%%score ( 1 2 ) ( 3 4 )
L:1/8
M:4/4
K:G
V:1 treble 
V:2 treble 
V:3 bass 
V:4 bass 
V:1
 [GB]3 [FA] G2 [DF]2 | [DF]2 [CE]2 [B,D]4 | [DG]2 (AB) [Gc]2 [FB]2 | [EA]2 [EG]2 [FA]4 | %4
 (D2 E)[Fc] [GB]2 G2 | (EA) z ^G [Ac]4 | [FA]2 ([GB][Ac]) [Gd]2 [GB]2 | [GA]2 [FA]2 G4 |] %8
V:2
 x4 G2 x2 | x8 | x2 D2 x4 | x8 | d3 x G2 x2 | A2 B2 x4 | x8 | x4 G4 |] %8
V:3
 [G,D]3 [G,C] [G,B,]2 (B,A,) | (C,D,)([E,G,][F,A,]) [G,B,]4 | [G,B,]2 [F,A,]2 (G,A,) [D,B,]2 | %3
 [C,C]2 [E,B,]2 [D,D]4 | B,3 [A,C] (G,F,)([E,G,][D,B,]) | [C,E]2 [B,,D]2 [A,,C]4 | %6
 [D,D]2 [C,D]2 [B,,G,]2 (E,D,) | [C,E]2 (DC) [G,,B,]4 |] %8
V:4
 x6 B,,2 | G,2 x6 | x4 E,2 x2 | x8 | B,3 D2 x3 | x8 | x6 B,2 | x2 D,2 x4 |] %8

